packages/ui-icons/svg/Solid/windows.svg

<svg viewBox="0 0 1920 1920" version="1.1" xmlns="http://www.w3.org/2000/svg">
    <path d="M1863.52941,1016.43671 C1894.70118,1016.43671 1920,1041.73553 1920,1072.90729 L1920,1072.90729 L1920,1863.49553 C1920,1879.872 1912.88471,1895.34494 1900.68706,1905.96141 C1890.29647,1915.10965 1877.08235,1919.96612 1863.52941,1919.96612 C1861.04471,1919.96612 1858.44706,1919.85318 1855.96235,1919.51435 L1855.96235,1919.51435 L952.432941,1796.18259 C924.423529,1792.34259 903.529412,1768.39906 903.529412,1740.16376 L903.529412,1740.16376 L903.529412,1072.90729 C903.529412,1041.73553 928.828235,1016.43671 960,1016.43671 L960,1016.43671 Z M734.117647,1016.43671 C765.289412,1016.43671 790.588235,1041.73553 790.588235,1072.90729 L790.588235,1072.90729 L790.588235,1707.41082 C790.588235,1723.78729 783.472941,1739.26024 771.162353,1749.98965 C760.771765,1759.02494 747.670588,1763.88141 734.117647,1763.88141 C731.632941,1763.88141 728.922353,1763.76847 726.437647,1763.31671 L726.437647,1763.31671 L48.7905882,1669.34965 C20.7811765,1665.50965 0,1641.67906 0,1613.44376 L0,1613.44376 L0,1072.90729 C0,1041.73553 25.2988235,1016.43671 56.4705882,1016.43671 L56.4705882,1016.43671 Z M726.392471,156.581647 C742.543059,154.209882 758.806588,159.179294 771.117176,169.908706 C783.540706,180.638118 790.543059,196.224 790.543059,212.487529 L790.543059,212.487529 L790.543059,846.991059 C790.543059,878.275765 765.357176,903.461647 734.072471,903.461647 L734.072471,903.461647 L56.4254118,903.461647 C25.2536471,903.461647 -0.0451764706,878.275765 -0.0451764706,846.991059 L-0.0451764706,846.991059 L-0.0451764706,306.454588 C-0.0451764706,278.332235 20.736,254.388706 48.7454118,250.548706 L48.7454118,250.548706 Z M1855.97365,0.474352941 C1872.12424,-1.55858824 1888.38776,3.18494118 1900.69835,13.9143529 C1912.896,24.6437647 1920.01129,40.1167059 1920.01129,56.3802353 L1920.01129,56.3802353 L1920.01129,846.968471 C1920.01129,878.253176 1894.71247,903.439059 1863.54071,903.439059 L1863.54071,903.439059 L960.011294,903.439059 C928.839529,903.439059 903.540706,878.253176 903.540706,846.968471 L903.540706,846.968471 L903.540706,179.712 C903.540706,151.476706 924.321882,127.646118 952.444235,123.806118 L952.444235,123.806118 Z" stroke="none" stroke-width="1" fill-rule="evenodd"/>
</svg>

<svg viewBox="0 0 1920 1920" version="1.1" xmlns="http://www.w3.org/2000/svg">
    <path d="M734.118 1016.437c31.171 0 56.47 25.299 56.47 56.47v634.504c0 16.376-7.115 31.85-19.426 42.579-10.39 9.035-23.491 13.891-37.044 13.891-2.485 0-5.196-.113-7.68-.564L48.79 1669.35C20.78 1665.51 0 1641.68 0 1613.444v-540.537c0-31.171 25.299-56.47 56.47-56.47h677.648zm-7.726-859.855c16.151-2.372 32.415 2.597 44.725 13.327 12.424 10.73 19.426 26.315 19.426 42.579V846.99c0 31.285-25.186 56.47-56.47 56.47H56.424c-31.171 0-56.47-25.185-56.47-56.47V306.455c0-28.123 20.781-52.066 48.79-55.906l677.647-93.967zM1900.698 13.914c12.198 10.73 19.313 26.203 19.313 42.466v790.588c0 31.285-25.299 56.471-56.47 56.471H960.01c-31.171 0-56.47-25.186-56.47-56.47V179.711c0-28.235 20.78-52.066 48.903-55.906L1855.974.474c16.15-2.033 32.414 2.71 44.724 13.44zm-37.169 1002.523c31.172 0 56.471 25.299 56.471 56.47v790.589c0 16.376-7.115 31.849-19.313 42.465-10.39 9.149-23.605 14.005-37.158 14.005-2.484 0-5.082-.113-7.567-.452l-903.53-123.331c-28.008-3.84-48.903-27.784-48.903-56.02v-667.256c0-31.171 25.3-56.47 56.471-56.47h903.53z" stroke="none" stroke-width="1" fill-rule="evenodd"/>
</svg>
